X:1
T:Title
%%score { ( 1 3 ) | 2 }
L:1/8
Q:1/4=84
M:6/8
K:Ab
V:1 treble nm="Grand Piano"
V:3 treble 
V:2 bass 
V:1
 [Ec]>[DB][CA] [FB][FA][DF] | [CE][EA]B c2 c | e>ee cBA | [GB]6 | [Ec]>[DB][CA] [FB][FA][DF] | %5
w: J.~H.~Hall * * * * *|||||
 [CE][EA]B c2 c | e>ee [EAc][CEA][DEB] | [CEA]6 | e>ee [Ec][EA]B | c6[K:bass][K:treble] | %10
w: |||||
 [CEA]2 [A,EA] [FB][DFA][A,DF] | [CE] E2- E2 z | [CE]>[CE][CE] [DF][CE][CE] | [CE][EA]B c2 c | %14
w: ||||
 e>ee [EAc][CEA][DEB] | [CEA]6 |] %16
w: ||
V:2
 [A,,A,]>[A,,A,][A,,A,] [D,A,][D,A,][D,A,] | [A,,A,][C,A,][E,G,E][K:treble] [A,E]2 [A,E] | %2
 [A,CA]>[A,CA][A,CA] [A,EA][K:bass][G,E][F,=DF] | [E,E]6 | %4
 [A,,A,]>[A,,A,][A,,A,] [D,A,][D,A,][D,A,] | [A,,A,][C,A,][E,G,E][K:treble] [A,E]2 [A,E] | %6
 [A,CA]>[A,CA][A,CA][K:bass] E,E,E, | A,,6 | [A,CA]>[A,CA][A,CA][K:bass] [A,,A,][C,A,][E,G,E] | %9
 [A,E]2 [C,A,] [A,,A,]2 [A,,A,] | A,,2 C, [D,A,]D,D, | A,,C,[E,G,] .A,3 | %12
 [A,,A,]>[A,,A,][A,,A,] [A,,A,][A,,A,][A,,A,] | [A,,A,][C,A,][E,G,E][K:treble] [A,E]2 [A,E] | %14
 [A,CA]>[A,CA][A,CA][K:bass] E,E,E, | A,,6 |] %16
V:3
 x6 | x6 | x6 | x6 | x6 | x6 | x6 | x6 | x6 | z[K:bass] E,E[K:treble] E2 [Ec] | x6 | A,2 D .C3 | %12
 x6 | x6 | x6 | x6 |] %16

